pk/color-card.svg

<svg viewBox="0 0 48 48" fill="none" xmlns="http://www.w3.org/2000/svg" height="1em" width="1em">
  <path d="M10 44C13.3137 44 16 41.3137 16 38V23.5147V4H4V38C4 41.3137 6.68629 44 10 44Z" fill="#2F88FF"/>
  <path d="M10 44C13.3137 44 16 41.3137 16 38V23.5147M10 44C6.68629 44 4 41.3137 4 38V4H16V23.5147M10 44H44V32H24.4853M5.75736 42.2426C8.10051 44.5858 11.8995 44.5858 14.2426 42.2426L24.4853 32M16 23.5147L35.0147 4.5L35.4853 4L43.9853 12.5L24.4853 32" stroke="black" stroke-width="4" stroke-linecap="round" stroke-linejoin="round"/>
  <path d="M14.2427 42.2426L43.9853 12.5L35.4853 4L16 23.5147" stroke="black" stroke-width="4" stroke-linecap="round" stroke-linejoin="round"/>
  <path d="M24.4853 32H44V44H12.5" stroke="black" stroke-width="4" stroke-linecap="round" stroke-linejoin="round"/>
  <path d="M24.4853 32H44V44H12.5" stroke="black" stroke-width="4" stroke-linecap="round" stroke-linejoin="round"/>
  <path d="M10 44C13.3137 44 16 41.3137 16 38V23.5147V4H4V38C4 41.3137 6.68629 44 10 44Z" fill="#2F88FF" stroke="black" stroke-width="4" stroke-linecap="round" stroke-linejoin="round"/>
</svg>

<svg viewBox="0 0 48 48" fill="none" xmlns="http://www.w3.org/2000/svg" height="1em" width="1em">
  <path d="M10 44a6 6 0 0 0 6-6V4H4v34a6 6 0 0 0 6 6Z" fill="#2F88FF"/>
  <path d="M10 44a6 6 0 0 0 6-6V23.515M10 44a6 6 0 0 1-6-6V4h12v19.515M10 44h34V32H24.485M5.757 42.243a6 6 0 0 0 8.486 0L24.485 32M16 23.515 35.015 4.5l.47-.5 8.5 8.5-19.5 19.5" stroke="#000" stroke-width="4" stroke-linecap="round" stroke-linejoin="round"/>
  <path d="M14.243 42.243 43.985 12.5l-8.5-8.5L16 23.515" stroke="#000" stroke-width="4" stroke-linecap="round" stroke-linejoin="round"/>
  <path d="M24.485 32H44v12H12.5" stroke="#000" stroke-width="4" stroke-linecap="round" stroke-linejoin="round"/>
  <path d="M24.485 32H44v12H12.5" stroke="#000" stroke-width="4" stroke-linecap="round" stroke-linejoin="round"/>
  <path d="M10 44a6 6 0 0 0 6-6V4H4v34a6 6 0 0 0 6 6Z" fill="#2F88FF" stroke="#000" stroke-width="4" stroke-linecap="round" stroke-linejoin="round"/>
</svg>
